X:1
T:Title
%%score { 1 | ( 2 3 ) }
L:1/8
M:3/4
K:Db
V:1 treble nm="Grand Piano"
V:2 bass 
V:3 bass 
V:1
 z2 z2[Q:1/4=100] F2 | F>F EF AG | G4 [CE]2 | [DF][FA] [Gd][GB] [FA][B,DF] |[M:2/4] [DF]2 E2 | %5
[M:1/4] F2 |[M:3/4] F>F EF AG | G4 G2 | [CG]>[EG] FG BA |[M:2/4] A4 |[M:1/4] [Ad]2 | %11
[M:3/4] d>d d[Bd] [Ac][GB] | [GB]2 A2 A2 | %13
 AG FD [CF][Q:1/4=88][CE][Q:1/4=98][Q:1/4=97][Q:1/4=95][Q:1/4=94][Q:1/4=92][Q:1/4=91][Q:1/4=89][Q:1/4=86][Q:1/4=84][Q:1/4=83][Q:1/4=81][Q:1/4=80][Q:1/4=78][Q:1/4=77] | %14
[M:2/4] D4 |] %15
V:2
 z2 z2 [D,A,D]2 | [D,A,D]>[D,A,D] [G,A,C][F,A,D] [E,A,C][E,A,C] | [E,A,C]4 [A,,A,]2 | %3
 [D,A,][D,D] [D,B,][D,D] [D,D]=G, |[M:2/4] z2 C2 |[M:1/4] [D,A,D]2 | %6
[M:3/4] [D,A,D]>[D,A,D] [G,A,C][F,A,D] [E,A,C][E,A,C] | [E,A,C]4 [E,A,C]2 | %8
 [A,,A,]>[C,A,] [D,A,D][D,B,D] [D,G,D][D,F,D] |[M:2/4] [D,F,D]4 |[M:1/4] [F,_C]2 | %11
[M:3/4] [G,B,G]>[G,B,G] [G,B,G][G,B,] [G,C][G,D] | z2 F2 [F,_CD]2 | %13
 [G,B,D][G,=A,D] [D,_A,D][B,,=G,] [A,,A,][A,,_G,] |[M:2/4] [D,F,]4 |] %15
V:3
 x6 | x6 | x6 | x6 |[M:2/4] A,4 |[M:1/4] x2 |[M:3/4] x6 | x6 | x6 |[M:2/4] x4 |[M:1/4] x2 | %11
[M:3/4] x6 | [D,D]4 z2 | x6 |[M:2/4] x4 |] %15

